resources/icons/20px/new-layers.svg

<?xml version="1.0" encoding="UTF-8"?>
<svg width="20px" height="20px" viewBox="0 0 20 20" version="1.1" xmlns="http://www.w3.org/2000/svg" xmlns:xlink="http://www.w3.org/1999/xlink">
    <!-- Generator: Sketch 58 (84663) - https://sketch.com -->
    <title>pt-icon-new-layers</title>
    <desc>Created with Sketch.</desc>
    <defs>
        <path d="M17,3 L19,3 C19.5522847,3 20,3.44771525 20,4 C20,4.55228475 19.5522847,5 19,5 L17,5 L17,7 C17,7.55228475 16.5522847,8 16,8 C15.4477153,8 15,7.55228475 15,7 L15,5 L13,5 C12.4477153,5 12,4.55228475 12,4 C12,3.44771525 12.4477153,3 13,3 L15,3 L15,1 C15,0.44771525 15.4477153,0 16,0 C16.5522847,0 17,0.44771525 17,1 L17,3 Z M15.7482471,8.98430719 L10.5,11.9 C10.3,12 10.2,12 10,12 C9.8,12 9.7,12 9.5,11.9 L0.5,6.9 C0.2,6.7 0,6.4 0,6 C0,5.6 0.2,5.3 0.5,5.1 L9.5,0.1 C9.7,0 9.8,0 10,0 C10.2,0 10.3,0 10.5,0.1 L13.92,2 L13,2 C11.8954305,2 11,2.8954305 11,4 C11,5.1045695 11.8954305,6 13,6 L14,6 L14,7 C14,8.01930028 14.762518,8.86050495 15.7482471,8.98430719 Z M17.818191,7.83433834 C17.934914,7.58039327 18,7.29779746 18,7 L18,6 L19,6 C19.3526109,6 19.6839091,5.90874906 19.9715681,5.74857349 C19.9901589,5.82746176 20,5.9112706 20,6 C20,6.4 19.8,6.7 19.5,6.9 L17.818191,7.83433834 Z M19,9 C19.6,9 20,9.4 20,10 C20,10.4 19.8,10.7 19.5,10.9 L10.5,15.9 C10.3,16 10.2,16 10,16 C9.8,16 9.7,16 9.5,15.9 L0.5,10.9 C0.2,10.7 0,10.4 0,10 C0,9.4 0.4,9 1,9 C1.2,9 1.3,9 1.5,9.1 L10,13.9 L18.5,9.1 C18.7,9 18.8,9 19,9 Z M19,13 C19.6,13 20,13.4 20,14 C20,14.4 19.8,14.7 19.5,14.9 L10.5,19.9 C10.3,20 10.2,20 10,20 C9.8,20 9.7,20 9.5,19.9 L0.5,14.9 C0.2,14.7 0,14.4 0,14 C0,13.4 0.4,13 1,13 C1.2,13 1.3,13 1.5,13.2 L10,17.9 L18.5,13.1 C18.7,13 18.8,13 19,13 Z" id="path-1"></path>
    </defs>
    <g id="pt-icon-new-layers" stroke="none" stroke-width="1" fill="none" fill-rule="evenodd">
        <mask id="mask-2" fill="white">
            <use xlink:href="#path-1"></use>
        </mask>
        <use id="path-1" fill="#000000" xlink:href="#path-1"></use>
    </g>
</svg>

<svg xmlns="http://www.w3.org/2000/svg" viewBox="0 0 20 20">
  <path d="M17 3h2a1 1 0 1 1 0 2h-2v2a1 1 0 1 1-2 0V5h-2a1 1 0 1 1 0-2h2V1a1 1 0 1 1 2 0zm-1.252 5.984L10.5 11.9c-.2.1-.3.1-.5.1s-.3 0-.5-.1l-9-5C.2 6.7 0 6.4 0 6s.2-.7.5-.9l9-5c.2-.1.3-.1.5-.1s.3 0 .5.1L13.92 2H13a2 2 0 1 0 0 4h1v1a2 2 0 0 0 1.748 1.984m2.07-1.15C17.935 7.58 18 7.298 18 7V6h1c.353 0 .684-.091.972-.251q.027.117.028.251c0 .4-.2.7-.5.9zM19 9c.6 0 1 .4 1 1 0 .4-.2.7-.5.9l-9 5c-.2.1-.3.1-.5.1s-.3 0-.5-.1l-9-5c-.3-.2-.5-.5-.5-.9 0-.6.4-1 1-1 .2 0 .3 0 .5.1l8.5 4.8 8.5-4.8c.2-.1.3-.1.5-.1m0 4c.6 0 1 .4 1 1 0 .4-.2.7-.5.9l-9 5c-.2.1-.3.1-.5.1s-.3 0-.5-.1l-9-5c-.3-.2-.5-.5-.5-.9 0-.6.4-1 1-1 .2 0 .3 0 .5.2l8.5 4.7 8.5-4.8c.2-.1.3-.1.5-.1"/>
</svg>
